X: 13
T:Boyne,The.(A New Scotch March). HA13
M:4/4
L:1/8
Q:160
S:Henry Atkinson MS,Hartburn,Northumberland,1694/5 transcribed John Stokoe 1883
N:Seems to be a problem with the key sig,but not sure what it is so not
N:justified in altering i
Z:vmp.Cherri Graebe
K:D
c2ccB2BB|A2A2Bcd2|g2d2edcB|ABcdB2G2:||:g2G2g2G2|gfedg2G2|!
G2GGF2FF|E2E2c4|c2c2B3B|A2A2f3e/f/|g2d2edcB|ABcdB2G2:||
